X: 127
T:Sporting Paddy
R:Reel
M:C|
L:1/8
Q:1/2=112
K:Ador
|EAEA GABA|EAAB G2ED|EA~A2 GABd|edge dBAG|
EAAB GABG|EAAB G2ED|EAAB GABd|edge d2||
ef|ge~e2 gede|ge~e2 a2ba|ge~e2 ged2|efge d2ef|
g2fg e~BB2|gfga b2ga|bgaf gedg|efge dBAG|]
